img/logo.svg

<svg width="240" height="51" viewBox="0 0 240 51" fill="none" xmlns="http://www.w3.org/2000/svg">
<g clip-path="url(#clip0_27_3)">
<path d="M74.7059 39.5021H24.2912C21.6 39.5021 19.4034 39.0214 17.7629 38.0745C16.1224 37.1276 14.7922 35.9483 13.8366 34.5803C12.8806 33.2186 12.213 31.6786 11.8741 30.0535C11.5434 28.5576 11.3679 27.032 11.3502 25.5006C11.3681 23.9687 11.5436 22.4426 11.8741 20.9462C12.2128 19.3206 12.8805 17.7801 13.8366 16.418C14.7922 15.0528 16.1122 13.8779 17.7629 12.9325C19.4137 11.987 21.6044 11.5034 24.2912 11.5034H74.7059C75.4679 11.5154 76.2245 11.3728 76.9291 11.0844C77.6337 10.7959 78.2715 10.3677 78.8034 9.82602C79.3493 9.29804 79.7808 8.66509 80.0717 7.9659C80.3626 7.26671 80.5067 6.51597 80.4951 5.75962C80.506 5.00336 80.3616 4.25282 80.0708 3.55372C79.7799 2.85463 79.3487 2.2216 78.8034 1.69321C78.2725 1.14909 77.6352 0.718249 76.9306 0.427076C76.2261 0.135902 75.469 -0.00947701 74.7059 -0.000158612H21.7229C18.3571 -0.000158612 15.2839 0.789886 12.6205 2.34674C9.96362 3.89425 7.6371 5.94211 5.77171 8.37519C3.88361 10.8415 2.43035 13.6076 1.47366 16.5559C0.511465 19.442 0.0141315 22.4607 0 25.5006C0.022753 28.5136 0.498733 31.5063 1.4122 34.3799C2.31122 37.3267 3.68456 40.1099 5.47902 42.6216C7.1993 45.033 9.38376 47.0824 11.9063 48.6515C14.4161 50.2112 17.321 51.0013 20.5405 51.0013H74.7015C76.2377 51.0013 77.7109 50.3957 78.7972 49.3177C79.8834 48.2397 80.4937 46.7776 80.4937 45.2531C80.4937 43.7286 79.8834 42.2666 78.7972 41.1886C77.7109 40.1106 76.2377 39.505 74.7015 39.505L74.7059 39.5021Z" fill="white"/>
<path d="M78.8064 21.4285C78.2739 20.8875 77.636 20.4599 76.9315 20.1718C76.227 19.8836 75.4707 19.741 74.7088 19.7526H25.579C24.8175 19.7495 24.0629 19.8961 23.3588 20.1839C22.6547 20.4717 22.0149 20.8949 21.4764 21.4293C20.938 21.9637 20.5114 22.5986 20.2214 23.2974C19.9314 23.9962 19.7837 24.745 19.7868 25.5007C19.7841 26.2563 19.9321 27.005 20.2222 27.7036C20.5124 28.4022 20.9389 29.037 21.4773 29.5713C22.0157 30.1056 22.6553 30.5289 23.3593 30.8168C24.0632 31.1047 24.8176 31.2516 25.579 31.2489H74.7059C75.4673 31.2516 76.2217 31.1047 76.9256 30.8168C77.6296 30.5289 78.2692 30.1056 78.8076 29.5713C79.346 29.037 79.7725 28.4022 80.0627 27.7036C80.3528 27.005 80.5008 26.2563 80.4981 25.5007C80.5089 24.7446 80.3646 23.9942 80.074 23.2952C79.7834 22.5961 79.3526 21.963 78.8078 21.4343L78.8064 21.4285Z" fill="white"/>
<path d="M164.529 1.61639L164.517 1.60332C164.005 1.08706 163.393 0.679265 162.718 0.404663C162.043 0.130061 161.319 -0.00563334 160.589 0.00580386C158.899 0.00580386 157.462 0.698545 156.313 2.06805L130.001 36.7284C129.455 37.4245 128.844 38.0678 128.176 38.6497C126.678 39.9975 125.094 39.9989 123.594 38.6497C122.912 38.0467 122.265 37.4051 121.657 36.7284L95.5756 2.17843C94.5 0.726139 93.0219 -5.28974e-06 91.1854 -5.28974e-06C90.4549 -0.01146 89.7298 0.124931 89.0542 0.400844C88.3786 0.676756 87.7668 1.0864 87.2561 1.60477C86.7354 2.11217 86.3242 2.7194 86.0474 3.38951C85.7707 4.05962 85.6342 4.77861 85.6463 5.50271C85.6398 6.23777 85.7983 6.96505 86.1102 7.63177C86.4073 8.26451 86.7903 8.85383 87.2488 9.38323L114.454 45.4915C116.557 48.1355 119.524 49.9692 122.843 50.6769C126.162 51.3846 129.626 50.9221 132.638 49.3691C134.637 48.3441 136.392 46.9084 137.788 45.1574L164.845 8.95916L164.968 8.84007C165.739 7.99629 166.13 6.87367 166.13 5.49981C166.141 4.77873 166.005 4.06284 165.73 3.39537C165.455 2.72791 165.046 2.12273 164.529 1.61639Z" fill="white"/>
<path d="M239.538 43.3697C239.238 42.7376 238.856 42.1481 238.399 41.6168L211.199 5.5187C209.894 3.78315 208.18 2.39224 206.207 1.46827C204.135 0.477984 201.861 -0.0221905 199.562 0.00704015C197.263 0.0362708 195.002 0.594111 192.957 1.63674C190.851 2.71869 189.136 4.13758 187.86 5.84837L160.668 42.1599C159.896 43.0037 159.498 44.1263 159.498 45.5002C159.495 46.2236 159.636 46.9403 159.914 47.6092C160.192 48.278 160.6 48.8857 161.116 49.3972C161.631 49.9087 162.243 50.3139 162.917 50.5895C163.591 50.8651 164.313 51.0056 165.042 51.0029C166.731 51.0029 168.168 50.3102 169.317 48.9421L195.638 14.2716C196.184 13.5759 196.795 12.933 197.463 12.3517C198.961 11.0054 200.545 11.0069 202.043 12.3517C202.724 12.957 203.371 13.5984 203.981 14.2731L230.063 48.8216C231.136 50.2739 232.614 51 234.454 51C235.183 51.0031 235.905 50.8628 236.579 50.5874C237.253 50.3119 237.866 49.9067 238.381 49.3951C238.897 48.8836 239.305 48.2757 239.583 47.6067C239.86 46.9377 240.002 46.2208 239.999 45.4973C240.005 44.763 239.848 44.0364 239.538 43.3697Z" fill="white"/>
<path d="M199.752 42.7103C202.945 42.7103 205.534 40.1414 205.534 36.9723C205.534 33.8033 202.945 31.2344 199.752 31.2344C196.558 31.2344 193.97 33.8033 193.97 36.9723C193.97 40.1414 196.558 42.7103 199.752 42.7103Z" fill="white"/>
</g>
<defs>
<clipPath id="clip0_27_3">
<rect width="240" height="51" fill="white"/>
</clipPath>
</defs>
</svg>

<svg width="240" height="51" fill="none" xmlns="http://www.w3.org/2000/svg"><g clip-path="url(#clip0_27_3)" fill="#fff"><path d="M74.706 39.502H24.29c-2.691 0-4.888-.48-6.528-1.428-1.64-.946-2.97-2.126-3.926-3.494a12.22 12.22 0 01-1.963-4.526 22.284 22.284 0 01-.524-4.553c.018-1.532.194-3.058.524-4.555a12.22 12.22 0 011.963-4.528c.955-1.365 2.275-2.54 3.926-3.486 1.65-.945 3.841-1.429 6.528-1.429h50.415a5.636 5.636 0 002.223-.419 5.6 5.6 0 001.874-1.258 5.559 5.559 0 001.269-1.86c.29-.7.435-1.45.423-2.206a5.535 5.535 0 00-1.692-4.067A5.645 5.645 0 0074.706 0H21.723c-3.366 0-6.44.79-9.102 2.347a23.587 23.587 0 00-6.85 6.028 27.34 27.34 0 00-4.297 8.18A28.701 28.701 0 000 25.502a30.057 30.057 0 001.412 8.879 28.468 28.468 0 004.067 8.242 22.476 22.476 0 006.427 6.03c2.51 1.56 5.415 2.35 8.635 2.35H74.7c1.537 0 3.01-.606 4.096-1.684a5.726 5.726 0 001.697-4.065c0-1.524-.61-2.986-1.697-4.064a5.815 5.815 0 00-4.096-1.684l.005-.003z"/><path d="M78.806 21.428a5.644 5.644 0 00-4.098-1.676H25.58a5.806 5.806 0 00-4.103 1.677 5.724 5.724 0 00-1.255 1.868 5.687 5.687 0 00-.434 2.204 5.69 5.69 0 001.69 4.07 5.81 5.81 0 004.102 1.678h49.127a5.81 5.81 0 004.102-1.678 5.69 5.69 0 001.69-4.07 5.539 5.539 0 00-.424-2.206 5.576 5.576 0 00-1.266-1.86l-.002-.006zm85.723-19.812l-.012-.013a5.399 5.399 0 00-3.928-1.597c-1.69 0-3.127.693-4.276 2.062l-26.312 34.66a14.039 14.039 0 01-1.825 1.922c-1.498 1.348-3.082 1.349-4.582 0a23.776 23.776 0 01-1.937-1.922L95.576 2.178C94.5.726 93.022 0 91.186 0a5.413 5.413 0 00-3.93 1.605 5.304 5.304 0 00-1.61 3.898 4.921 4.921 0 00.464 2.129c.297.633.68 1.222 1.139 1.751l27.205 36.109a14.609 14.609 0 008.389 5.185c3.319.708 6.783.245 9.795-1.308a15.81 15.81 0 005.15-4.212L164.845 8.96l.123-.119c.771-.844 1.162-1.966 1.162-3.34a5.311 5.311 0 00-1.601-3.884zm75.009 41.754a7.843 7.843 0 00-1.139-1.753l-27.2-36.098a13.303 13.303 0 00-4.992-4.05 14.97 14.97 0 00-13.25.168c-2.106 1.082-3.821 2.5-5.097 4.211L160.668 42.16c-.772.844-1.17 1.966-1.17 3.34-.003.724.138 1.44.416 2.11a5.52 5.52 0 003.003 2.98 5.56 5.56 0 002.125.413c1.689 0 3.126-.693 4.275-2.06l26.321-34.671a14.016 14.016 0 011.825-1.92c1.498-1.347 3.082-1.345 4.58 0a25.026 25.026 0 011.938 1.921l26.082 34.549c1.073 1.452 2.551 2.178 4.391 2.178a5.555 5.555 0 003.927-1.605 5.455 5.455 0 001.618-3.898 4.95 4.95 0 00-.461-2.127z"/><path d="M199.752 42.71c3.193 0 5.782-2.569 5.782-5.738 0-3.169-2.589-5.738-5.782-5.738-3.194 0-5.782 2.57-5.782 5.738 0 3.17 2.588 5.738 5.782 5.738z"/></g><defs><clipPath id="clip0_27_3"><path fill="#fff" d="M0 0h240v51H0z"/></clipPath></defs></svg>
